X:2564
T:Hey Boys, Up Go We
O:england
M:6/8
L:1/8
Q:C3=128
B:The Round Band Book of Playford
K:C
z | "G" d2 d d2 c | B2 c d2 G | "Dm" A2 A "G7" B>AB | "C" c3-c2 z | \
"G" d2 d "D7" d2 c | "G" B2 c d2 G | "F" A2 A "G7" B>AB | "C" c3-c2 || \
F | "F" FGF "C" EDE | "G" D2 D BAB | "C" c2 G "F" A G2 | "C" E3 C>DE | \
"F"F>GF "C"E>DE | "G" D2 D "G7" B>AB | "C" c2 G "F"A G2 | "C" E3 C2 :|


